X: 21661
Q: "Lively."
M: C|
L: 1/8
K: D
z2A2 |\
d2c2 d2e2 | f4 g3g | a2d2 {f}e2d<c | d4 z2A2 |\
d2c2 d2e2 | f4 g3g | a2d2 {f}e2(d<c) | d4 z2 |] \
d2c2 d2e2 | f4 g3g | a2d2 {f}e2d<c | d4 z2 |]\
a>a |\
a3a a2a2 | a4 a2d2 | d2ef g2f2 | e4 z2e>d |\
f2e2 f2e2 | Tf4 {ef}g3g | a2gf f2Ted | d4 |]


